X:1
T:[ID 4-46r]
T:[ID 4-46r]
T:Bezeichnung standardisiert: March March
T:Urheber unbekannt Datum in der hier transkribierten schriftlichen Quelle: 1767
C:Urheber unbekannt
C:Datum in der hier transkribierten schriftlichen Quelle: 1767
L:1/8
M:4/4
K:G
V:1 treble 
V:1
 G4 D4 | G2 BA G2 z2 | B4 G4 | B2 dc B2 d2 | d2 dd dBcd | c2 cc cABc | BGBd gdcB | A2 AA A2 z2 :: %8
 d4 B4 | c2 ec A2 z2 | f2 ff gdBG | A2 AA A2 z2 | G3 D G2 B2 | AGAB GABc | dg f/e/d/c/ B2 A2 | %15
 G2 GG G2 z2 :| %16

